img/like_card.svg

<svg width="24" height="24" viewBox="0 0 24 24" fill="none" xmlns="http://www.w3.org/2000/svg">
<mask id="mask0_1046_48137" style="mask-type:alpha" maskUnits="userSpaceOnUse" x="2" y="3" width="21" height="20">
<path fill-rule="evenodd" clip-rule="evenodd" d="M2 3H22.4725V22.501H2V3Z" fill="white"/>
</mask>
<g mask="url(#mask0_1046_48137)">
<path fill-rule="evenodd" clip-rule="evenodd" d="M3.82371 12.1231C5.22571 16.4851 10.7647 20.0121 12.2367 20.8851C13.7137 20.0031 19.2927 16.4371 20.6497 12.1271C21.5407 9.34112 20.7137 5.81212 17.4277 4.75312C15.8357 4.24212 13.9787 4.55312 12.6967 5.54512C12.4287 5.75112 12.0567 5.75512 11.7867 5.55112C10.4287 4.53012 8.65471 4.23112 7.03771 4.75312C3.75671 5.81112 2.93271 9.34012 3.82371 12.1231ZM12.2377 22.5011C12.1137 22.5011 11.9907 22.4711 11.8787 22.4101C11.5657 22.2391 4.19271 18.1751 2.39571 12.5811C2.39471 12.5811 2.39471 12.5801 2.39471 12.5801C1.26671 9.05812 2.52271 4.63212 6.57771 3.32512C8.48171 2.70912 10.5567 2.98012 12.2347 4.03912C13.8607 3.01112 16.0207 2.72712 17.8867 3.32512C21.9457 4.63412 23.2057 9.05912 22.0787 12.5801C20.3397 18.1101 12.9127 22.2351 12.5977 22.4081C12.4857 22.4701 12.3617 22.5011 12.2377 22.5011Z" fill="#222222" fill-opacity="0.6"/>
</g>
</svg>

<svg width="24" height="24" viewBox="0 0 24 24" fill="none" xmlns="http://www.w3.org/2000/svg"><mask id="a" style="mask-type:alpha" maskUnits="userSpaceOnUse" x="2" y="3" width="21" height="20"><path fill-rule="evenodd" clip-rule="evenodd" d="M2 3h20.473v19.501H2V3z" fill="#fff"/></mask><g mask="url(#a)"><path fill-rule="evenodd" clip-rule="evenodd" d="M3.824 12.123c1.402 4.362 6.94 7.89 8.413 8.762 1.477-.882 7.056-4.448 8.413-8.758.89-2.786.064-6.315-3.222-7.374-1.592-.51-3.45-.2-4.731.792a.75.75 0 0 1-.91.006 5.234 5.234 0 0 0-4.75-.798c-3.28 1.058-4.104 4.587-3.213 7.37zm8.414 10.378a.748.748 0 0 1-.36-.09c-.312-.172-7.685-4.236-9.482-9.83h-.001c-1.128-3.523.128-7.949 4.183-9.256a6.729 6.729 0 0 1 5.657.714c1.626-1.028 3.786-1.312 5.652-.714 4.059 1.31 5.319 5.734 4.192 9.255-1.74 5.53-9.166 9.655-9.481 9.828a.743.743 0 0 1-.36.093z" fill="#222" fill-opacity=".6"/></g></svg>
